assets/svg/icon-ui-warning-dark-gray.svg

<?xml version="1.0" encoding="UTF-8" standalone="no"?>
<svg width="38px" height="32px" viewBox="0 0 38 32" version="1.1" xmlns="http://www.w3.org/2000/svg" xmlns:xlink="http://www.w3.org/1999/xlink">
    <!-- Generator: Sketch 3.8.3 (29802) - http://www.bohemiancoding.com/sketch -->
    <title>dark gray/icon-ui-warning-dark-gray</title>
    <desc>Created with Sketch.</desc>
    <defs></defs>
    <g id="gray" stroke="none" stroke-width="1" fill="none" fill-rule="evenodd">
        <g id="icons,-utility-(gray)" transform="translate(-933.000000, -500.000000)" fill="#242F36">
            <g id="dark-gray/icon-ui-warning-dark-gray" transform="translate(933.000000, 500.000000)">
                <g id="icon-warning">
                    <g id="Page-1">
                        <path d="M20.2749807,1.03832464 C19.8763692,0.367424645 19.3548688,0 18.8333683,0 C18.3114789,0 17.7899785,0.338666383 17.391756,1.00918798 L0.507741492,29.5177079 C-0.288314745,30.8591295 0.356463584,32 1.94896495,32 L35.7177716,32 C37.3098841,32 37.9550513,30.8610215 37.1589951,29.5195999 L20.2749807,1.03832464 L20.2749807,1.03832464 Z M2.70855388,30.6666667 C1.97761436,30.6666667 1.68711684,30.1565003 2.06725375,29.5144356 L18.1049876,2.42613691 C18.4817468,1.78977727 19.0899555,1.78407225 19.4710223,2.42613691 L35.5479884,29.5144356 C35.9256692,30.1507952 35.6270092,30.6666667 34.9083571,30.6666667 L2.70855388,30.6666667 L2.70855388,30.6666667 Z M20.8333333,11.4541133 C20.8333333,10.979602 20.3817777,10.5951494 19.8244444,10.5951494 L17.8422223,10.5951494 C17.2848889,10.5951494 16.8333333,10.979602 16.8333333,11.4541133 L16.8333333,20.3317133 C16.8333333,20.8062247 17.2848889,21.1902988 17.8422223,21.1902988 L19.8244444,21.1902988 C20.3817777,21.1902988 20.8333333,20.8062247 20.8333333,20.3317133 C20.8333333,20.3317133 20.8333333,20.8062247 20.8333333,20.3317133 L20.8333333,11.4541133 L20.8333333,11.4541133 Z M20.8333333,24.4695768 C20.8333333,23.9122435 20.3817777,23.460688 19.8244444,23.460688 L17.8422223,23.460688 C17.2848889,23.460688 16.8333333,23.9122435 16.8333333,24.4695768 L16.8333333,26.4522435 C16.8333333,27.0095768 17.2848889,27.460688 17.8422223,27.460688 L19.8244444,27.460688 C20.3817777,27.460688 20.8333333,27.0095768 20.8333333,26.4522435 C20.8333333,26.4522435 20.8333333,27.0095768 20.8333333,26.4522435 L20.8333333,24.4695768 L20.8333333,24.4695768 Z" id="icon-warning"></path>
                    </g>
                </g>
            </g>
        </g>
    </g>
</svg>

<svg width="38" height="32" viewBox="0 0 38 32" xmlns="http://www.w3.org/2000/svg"><title>dark gray/icon-ui-warning-dark-gray</title><path d="M20.275 1.038C19.876.368 19.355 0 18.833 0c-.522 0-1.043.339-1.441 1.01L.508 29.517C-.288 30.859.356 32 1.949 32h33.769c1.592 0 2.237-1.139 1.441-2.48L20.275 1.038zM2.709 30.667c-.731 0-1.022-.51-.642-1.153L18.105 2.426c.377-.636.985-.642 1.366 0l16.077 27.088c.378.637.079 1.153-.64 1.153h-32.2zm18.124-19.213c0-.474-.451-.859-1.009-.859h-1.982c-.557 0-1.009.385-1.009.86v8.877c0 .474.452.858 1.01.858h1.981c.558 0 1.01-.384 1.01-.858 0 0 0 .474 0 0v-8.878zm0 13.016c0-.558-.451-1.01-1.009-1.01h-1.982c-.557 0-1.009.452-1.009 1.01v1.982c0 .558.452 1.009 1.01 1.009h1.981c.558 0 1.01-.451 1.01-1.009 0 0 0 .558 0 0V24.47z" fill="#242F36" fill-rule="evenodd"/></svg>
